assets/2023/icons/hcl_dark.svg

<svg width="16" height="16" viewBox="0 0 16 16" fill="none" xmlns="http://www.w3.org/2000/svg">
<path d="M9 7.09961H9.1V6.99961V0.777366L10.9 1.87087V9.93781L9.1 10.8378V8.99961V8.89961H9H7H6.9V8.99961V15.2219L5.1 14.1284V6.06141L6.9 5.16141V6.99961V7.09961H7H9Z" fill="#ECEFF1" stroke="#ECEFF1" stroke-width="0.2"/>
<path d="M2.94808 5.28414L2.9 5.31335V5.36961V12.7919L1.1 11.6984V4.30087L6.9 0.777366V2.88335L2.94808 5.28414Z" fill="#ECEFF1" stroke="#ECEFF1" stroke-width="0.2"/>
<path d="M13.0519 10.7148L13.1 10.6856V10.6293V3.20705L14.9 4.30055V11.698L9.1 15.2215V13.1156L13.0519 10.7148Z" fill="#ECEFF1" stroke="#ECEFF1" stroke-width="0.2"/>
</svg>

<svg xmlns="http://www.w3.org/2000/svg" width="16" height="16" fill="none" viewBox="0 0 16 16"><path fill="#ECEFF1" stroke="#ECEFF1" stroke-width=".2" d="M9 7.1h.1V.777l1.8 1.094v8.067l-1.8.9V8.9H6.9v6.322l-1.8-1.094V6.061l1.8-.9V7.1z"/><path fill="#ECEFF1" stroke="#ECEFF1" stroke-width=".2" d="m2.948 5.284-.048.03v7.478l-1.8-1.094V4.301L6.9.777v2.106zm10.104 5.431.048-.03V3.208l1.8 1.094v7.397l-5.8 3.524v-2.106z"/></svg>
